img/icons/call.svg

<svg width="25" height="24" viewBox="0 0 25 24" fill="none" xmlns="http://www.w3.org/2000/svg">
<path d="M20.7434 15.38C19.5134 15.38 18.3234 15.18 17.2134 14.82C16.8634 14.7 16.4734 14.79 16.2034 15.06L14.6334 17.03C11.8034 15.68 9.1534 13.13 7.7434 10.2L9.6934 8.54C9.9634 8.26 10.0434 7.87 9.9334 7.52C9.5634 6.41 9.3734 5.22 9.3734 3.99C9.3734 3.45 8.9234 3 8.3834 3H4.9234C4.3834 3 3.7334 3.24 3.7334 3.99C3.7334 13.28 11.4634 21 20.7434 21C21.4534 21 21.7334 20.37 21.7334 19.82V16.37C21.7334 15.83 21.2834 15.38 20.7434 15.38Z" fill="white"/>
</svg>

<svg width="25" height="24" fill="none" xmlns="http://www.w3.org/2000/svg"><path d="M20.743 15.38c-1.23 0-2.42-.2-3.53-.56a.977.977 0 00-1.01.24l-1.57 1.97c-2.83-1.35-5.48-3.9-6.89-6.83l1.95-1.66c.27-.28.35-.67.24-1.02-.37-1.11-.56-2.3-.56-3.53 0-.54-.45-.99-.99-.99h-3.46c-.54 0-1.19.24-1.19.99 0 9.29 7.73 17.01 17.01 17.01.71 0 .99-.63.99-1.18v-3.45c0-.54-.45-.99-.99-.99z" fill="#fff"/></svg>
